X: 17767
T: Hommage Till En Spelman
R: barndance
M: 4/4
K: Dmajor
DE|F2EF G2FG|Adcd B2cd|A2de gfed|e6 DE|
F2EF G2FG|Adcd Bgfg|abaA B2dc|1 d6:|2 d6 af|
b2gf e2ge|a2fe d2fd|g2ed cdBc|d6 af|
b2gf e2ge|a2fe d2fd|gfed Bdc2|d2cB A2Bc|
d2cd e2de|f2ef g2ab|a2gf g2e2|d6||

